public/svg/pink-shield.svg

<svg width="42" height="45" viewBox="0 0 42 45" fill="none" xmlns="http://www.w3.org/2000/svg">
<g filter="url(#filter0_d_188_192)">
<path d="M20.6474 30.8845C21.5679 30.8845 30.8146 26.7027 31.2949 12.5667C31.315 11.9736 30.9014 11.4526 30.3223 11.323C27.8909 10.7789 25.5774 9.80779 23.4567 8.49986C22.1022 7.66443 20.7974 6.88452 20.6473 6.88452C20.5254 6.88452 19.6189 7.43696 18.5867 8.09203C16.4062 9.47603 14.0332 10.5366 11.5268 11.1602L10.9959 11.2923C10.3999 11.4406 9.97938 11.9826 10.0008 12.5965C10.4928 26.7088 19.7274 30.8845 20.6474 30.8845Z" fill="url(#paint0_linear_188_192)"/>
</g>
<defs>
<filter id="filter0_d_188_192" x="0" y="0.884521" width="41.2954" height="44" filterUnits="userSpaceOnUse" color-interpolation-filters="sRGB">
<feFlood flood-opacity="0" result="BackgroundImageFix"/>
<feColorMatrix in="SourceAlpha" type="matrix" values="0 0 0 0 0 0 0 0 0 0 0 0 0 0 0 0 0 0 127 0" result="hardAlpha"/>
<feOffset dy="4"/>
<feGaussianBlur stdDeviation="5"/>
<feComposite in2="hardAlpha" operator="out"/>
<feColorMatrix type="matrix" values="0 0 0 0 1 0 0 0 0 0.454167 0 0 0 0 0.552417 0 0 0 1 0"/>
<feBlend mode="normal" in2="BackgroundImageFix" result="effect1_dropShadow_188_192"/>
<feBlend mode="normal" in="SourceGraphic" in2="effect1_dropShadow_188_192" result="shape"/>
</filter>
<linearGradient id="paint0_linear_188_192" x1="20.6478" y1="6.88452" x2="20.6478" y2="30.8845" gradientUnits="userSpaceOnUse">
<stop stop-color="#FF748D"/>
<stop offset="1" stop-color="#F71530"/>
</linearGradient>
</defs>
</svg>

<svg xmlns="http://www.w3.org/2000/svg" width="42" height="45" fill="none"><g filter="url(#a)"><path fill="url(#b)" d="M20.647 30.885c.92 0 10.168-4.182 10.648-18.318a1.24 1.24 0 0 0-.973-1.244c-2.431-.544-4.745-1.515-6.865-2.823-1.355-.836-2.66-1.615-2.81-1.615-.122 0-1.028.552-2.06 1.207-2.18 1.384-4.554 2.445-7.06 3.068l-.531.132A1.305 1.305 0 0 0 10 12.597c.492 14.112 9.726 18.287 10.646 18.287"/></g><defs><linearGradient id="b" x1="20.648" x2="20.648" y1="6.885" y2="30.884" gradientUnits="userSpaceOnUse"><stop stop-color="#FF748D"/><stop offset="1" stop-color="#F71530"/></linearGradient><filter id="a" width="41.295" height="44" x="0" y=".885" color-interpolation-filters="sRGB" filterUnits="userSpaceOnUse"><feFlood flood-opacity="0" result="BackgroundImageFix"/><feColorMatrix in="SourceAlpha" result="hardAlpha" values="0 0 0 0 0 0 0 0 0 0 0 0 0 0 0 0 0 0 127 0"/><feOffset dy="4"/><feGaussianBlur stdDeviation="5"/><feComposite in2="hardAlpha" operator="out"/><feColorMatrix values="0 0 0 0 1 0 0 0 0 0.454167 0 0 0 0 0.552417 0 0 0 1 0"/><feBlend in2="BackgroundImageFix" result="effect1_dropShadow_188_192"/><feBlend in="SourceGraphic" in2="effect1_dropShadow_188_192" result="shape"/></filter></defs></svg>
